assets/food/grapes.svg

<?xml version="1.0" encoding="UTF-8"?>
<svg xmlns="http://www.w3.org/2000/svg" xml:space="preserve" id="Icons" x="0" y="0" version="1.1" viewBox="0 0 48 48">
  <style>
    .st3{fill:none;stroke:#45413c;stroke-linecap:round;stroke-linejoin:round;stroke-miterlimit:10}.st58{fill:#6dd627}.st67{fill:#9ceb60}.st78{fill:#9f5ae5}.st79{fill:#803ec2}.st81{fill:#bf8df2}
  </style>
  <g id="XMLID_12524_">
    <path id="XMLID_12555_" d="M17.2 18.1c-2.9-.6-6.8-.6-8.2 2-1.9 3.3 1.1 4.9 2.9 3.2 1.8-1.7-1.6-6-8-3.8" class="st3"/>
    <circle id="XMLID_12554_" cx="34.7" cy="38.8" r="5.1" class="st78" transform="matrix(.8309 -.5565 .5565 .8309 -15.7263 25.8592)"/>
    <path id="XMLID_12553_" d="M39.4 37c-.2.2-.4.3-.6.5-1.1.7-2.4 1.1-3.6 1.1-.3 1.6-1.2 3.1-2.7 4.2-.2.2-.5.3-.8.4-.5-.4-1-.8-1.4-1.4-1.2-1.8-1.1-4 0-5.7.4-.5.8-1 1.4-1.4.7-.5 1.5-.8 2.3-.8 1.8-.2 3.7.6 4.8 2.2.3.2.5.5.6.9z" class="st79"/>
    <circle id="XMLID_12552_" cx="34.7" cy="38.8" r="5.1" class="st3" transform="matrix(.8309 -.5565 .5565 .8309 -15.7263 25.8592)"/>
    <circle id="XMLID_12551_" cx="27.2" cy="18.5" r="5.7" fill="#803ec2" stroke="#45413c" stroke-linecap="round" stroke-linejoin="round" stroke-miterlimit="10" transform="matrix(.8309 -.5565 .5565 .8309 -5.676 18.2724)"/>
    <ellipse id="XMLID_12550_" cx="26.7" cy="44.3" fill="#45413c" opacity=".15" rx="13.1" ry="1.7"/>
    <circle id="XMLID_12549_" cx="18.7" cy="24.2" r="5.7" class="st78" transform="rotate(-33.812 18.7168169 24.1587214)"/>
    <path id="XMLID_12548_" d="M15.6 22.4c2.6-1.7 6.1-1 7.9 1.6.4.5.6 1.1.8 1.7.4-1.5.2-3.2-.8-4.7-1.7-2.6-5.3-3.3-7.9-1.6-2.1 1.4-2.9 3.9-2.3 6.2.3-1.2 1.1-2.4 2.3-3.2z" class="st81"/>
    <circle id="XMLID_12547_" cx="18.7" cy="24.2" r="5.7" class="st3" transform="rotate(-33.812 18.7168169 24.1587214)"/>
    <circle id="XMLID_12546_" cx="17.9" cy="32.2" r="5.7" class="st78" transform="rotate(-33.812 17.94594902 32.2115744)"/>
    <path id="XMLID_12545_" d="M14.8 30.8c2.6-1.7 6.1-1 7.9 1.6.3.5.6 1 .7 1.5.5-1.6.3-3.3-.7-4.8-1.7-2.6-5.3-3.3-7.9-1.6-2.1 1.4-3 4-2.3 6.4.4-1.3 1.1-2.4 2.3-3.1z" class="st81"/>
    <circle id="XMLID_12544_" cx="17.9" cy="32.2" r="5.7" class="st3" transform="rotate(-33.812 17.94594902 32.2115744)"/>
    <circle id="XMLID_12543_" cx="33.7" cy="21" r="5.7" class="st78" transform="matrix(.8309 -.5565 .5565 .8309 -5.9779 22.2979)"/>
    <path id="XMLID_12542_" d="M30.5 19.4c2.6-1.7 6.1-1 7.9 1.6.3.5.6 1 .7 1.6.5-1.6.2-3.3-.7-4.8-1.7-2.6-5.3-3.3-7.9-1.6-2.1 1.4-3 4-2.3 6.3.4-1.2 1.2-2.3 2.3-3.1z" class="st81"/>
    <circle id="XMLID_12541_" cx="33.7" cy="21" r="5.7" class="st3" transform="matrix(.8309 -.5565 .5565 .8309 -5.9779 22.2979)"/>
    <circle id="XMLID_12540_" cx="34.8" cy="29.8" r="5.7" class="st78" transform="matrix(.8309 -.5565 .5565 .8309 -10.7008 24.4158)"/>
    <path id="XMLID_12539_" d="M31.6 27.5c2.6-1.7 6.1-1 7.9 1.6.4.6.7 1.3.8 2 .3-1.5.1-3-.8-4.4-1.7-2.6-5.3-3.3-7.9-1.6-2 1.3-2.9 3.7-2.4 5.9.4-1.4 1.2-2.7 2.4-3.5z" class="st81"/>
    <circle id="XMLID_12538_" cx="34.8" cy="29.8" r="5.7" class="st3" transform="matrix(.8309 -.5565 .5565 .8309 -10.7008 24.4158)"/>
    <circle id="XMLID_12537_" cx="26.5" cy="36.8" r="5.7" class="st78" transform="rotate(-33.812 26.47047693 36.7656961)"/>
    <path id="XMLID_12536_" d="M31.9 35.3c-.3.3-.7.7-1.1.9-3 2-6.9 1.5-8.7-1.2-.2-.3-.4-.7-.5-1 .4-.7 1-1.4 1.8-1.9 2.6-1.7 6.1-1 7.9 1.6.3.4.5 1 .6 1.6z" class="st79"/>
    <circle id="XMLID_12535_" cx="26.5" cy="36.8" r="5.7" class="st3" transform="rotate(-33.812 26.47047693 36.7656961)"/>
    <path id="XMLID_12534_" d="M25.6 22.3s-1.7-3.7-6.8-7.1c-3-2-5.8-2.6-7.2-2.7-.5-.1-1 .2-1.2.7l-.6 1.4c-.3.7.2 1.5 1 1.6 1.6.1 4.1.5 6.6 2 5.5 3.3 7 6.3 7 6.3l1.2-2.2z" class="st58"/>
    <path id="XMLID_12533_" d="M18.1 16.7c4 2.4 6.1 5.2 6.9 6.5l.5-.9s-1.7-3.7-6.8-7.1c-3-2-5.8-2.6-7.2-2.7-.5-.1-1 .2-1.2.7l-.3.9c1.6.1 4.8.6 8.1 2.6z" class="st67"/>
    <path id="XMLID_12532_" d="M25.6 22.3s-1.7-3.7-6.8-7.1c-3-2-5.8-2.6-7.2-2.7-.5-.1-1 .2-1.2.7l-.6 1.4c-.3.7.2 1.5 1 1.6 1.6.1 4.1.5 6.6 2 5.5 3.3 7 6.3 7 6.3l1.2-2.2z" class="st3"/>
    <circle id="XMLID_12531_" cx="27.6" cy="27.1" r="6.8" class="st78" transform="matrix(.8309 -.5565 .5565 .8309 -10.4455 19.925)"/>
    <path id="XMLID_12530_" d="M23.8 25.4c3.1-2.1 7.4-1.3 9.5 1.9.4.6.7 1.2.9 1.8.6-1.9.3-4-.9-5.8-2.1-3.1-6.3-4-9.5-1.9-2.6 1.7-3.6 4.8-2.7 7.6.4-1.3 1.3-2.7 2.7-3.6z" class="st81"/>
    <circle id="XMLID_12529_" cx="27.6" cy="27.1" r="6.8" class="st3" transform="matrix(.8309 -.5565 .5565 .8309 -10.4455 19.925)"/>
    <path id="XMLID_12528_" d="M16.4 5.3c.1-.5.7-.7 1.1-.4l2.1 1.8c.3.3.8.2 1-.2l.1-.2c.8-1.3 2-2.2 3.3-2.7l1-.3c.3-.1.7.1.8.4l.4.9c.6 1.1.8 2.4.7 3.7v.3c0 .5.3.9.7.8l2.2-.1c.5 0 .9.6.7 1.1l-.3.7c-1.2 2.6-3.5 4.4-6.2 4.7l-3.6.5-2.3-3c-1.8-2.2-2.4-5.2-1.7-8z" class="st58"/>
    <path id="XMLID_12527_" d="M16.4 7.6c.1-.5.7-.7 1.1-.4L19.6 9c.3.3.8.2 1-.2l.1-.2c.8-1.3 1.9-2.2 3.3-2.7l1-.3c.3-.1.7.1.8.4l.4.9c.5 1.2.7 2.4.6 3.7v.3c0 .5.3.9.7.8l2.2-.1h.1c.1-.2.2-.3.2-.5l.3-.7c.2-.5-.1-1.1-.7-1.1l-2.2.1c-.4 0-.8-.4-.7-.8v-.3c.3-1.3.1-2.6-.4-3.7l-.4-.9c-.2-.3-.5-.5-.8-.4l-1 .3c-1.3.4-2.5 1.4-3.3 2.7l-.1.2c-.2.4-.7.4-1 .2l-2.1-1.8c-.4-.3-1-.1-1.1.4-.3 1.1-.3 2.3-.2 3.4-.1-.4 0-.7.1-1.1z" class="st67"/>
    <path id="XMLID_12526_" d="M16.4 5.3c.1-.5.7-.7 1.1-.4l2.1 1.8c.3.3.8.2 1-.2l.1-.2c.8-1.3 2-2.2 3.3-2.7l1-.3c.3-.1.7.1.8.4l.4.9c.6 1.1.8 2.4.7 3.7v.3c0 .5.3.9.7.8l2.2-.1c.5 0 .9.6.7 1.1l-.3.7c-1.2 2.6-3.5 4.4-6.2 4.7l-3.6.5-2.3-3c-1.8-2.2-2.4-5.2-1.7-8z" class="st3"/>
    <path id="XMLID_12525_" d="M20.3 16.3c-.1-2 .9-4.9 2.9-7.5" class="st3"/>
  </g>
<script xmlns="" public-path="moz-extension://178c9362-62b4-4e42-9ba3-6b5af4663128/"/></svg>

<?xml version="1.0" encoding="UTF-8" standalone="no"?>
<!DOCTYPE svg PUBLIC "-//W3C//DTD SVG 1.1//EN" "http://www.w3.org/Graphics/SVG/1.1/DTD/svg11.dtd">
<svg width="100%" height="100%" viewBox="0 0 1024 1024" version="1.1" xmlns="http://www.w3.org/2000/svg" xmlns:xlink="http://www.w3.org/1999/xlink" xml:space="preserve" xmlns:serif="http://www.serif.com/" style="fill-rule:evenodd;clip-rule:evenodd;stroke-linecap:round;stroke-linejoin:round;stroke-miterlimit:10;">
    <g id="Layer-5">
    </g>
    <g id="Layer-6">
    </g>
    <g id="Layer-7">
    </g>
    <g id="Layer-8">
    </g>
    <g id="Layer-9">
    </g>
    <g id="Layer-10">
    </g>
    <g id="Layer-11">
    </g>
    <g id="Layer-4">
    </g>
    <g id="Layer-2">
    </g>
    <g id="Layer-3">
        <g id="XMLID_12555_" transform="matrix(16.7727,0,0,16.7727,139.662,116.488)">
            <path d="M17.2,18.1C14.3,17.5 10.4,17.5 9,20.1C7.1,23.4 10.1,25 11.9,23.3C13.7,21.6 10.3,17.3 3.9,19.5" style="fill:none;fill-rule:nonzero;stroke:rgb(69,65,60);stroke-width:1px;"/>
        </g>
        <g id="XMLID_12554_" transform="matrix(13.9364,-9.33401,9.33401,13.9364,-124.11,550.216)">
            <circle cx="34.7" cy="38.8" r="5.1" style="fill:rgb(159,90,229);"/>
        </g>
        <g id="XMLID_12553_" transform="matrix(16.7727,0,0,16.7727,139.662,116.488)">
            <path d="M39.4,37C39.2,37.2 39,37.3 38.8,37.5C37.7,38.2 36.4,38.6 35.2,38.6C34.9,40.2 34,41.7 32.5,42.8C32.3,43 32,43.1 31.7,43.2C31.2,42.8 30.7,42.4 30.3,41.8C29.1,40 29.2,37.8 30.3,36.1C30.7,35.6 31.1,35.1 31.7,34.7C32.4,34.2 33.2,33.9 34,33.9C35.8,33.7 37.7,34.5 38.8,36.1C39.1,36.3 39.3,36.6 39.4,37Z" style="fill:rgb(128,62,194);fill-rule:nonzero;"/>
        </g>
        <g id="XMLID_12552_" transform="matrix(13.9364,-9.33401,9.33401,13.9364,-124.11,550.216)">
            <circle cx="34.7" cy="38.8" r="5.1" style="fill:none;stroke:rgb(69,65,60);stroke-width:1px;"/>
        </g>
        <g id="XMLID_12551_" transform="matrix(13.9364,-9.33401,9.33401,13.9364,44.4603,422.965)">
            <circle cx="27.2" cy="18.5" r="5.7" style="fill:rgb(128,62,194);stroke:rgb(69,65,60);stroke-width:1px;"/>
        </g>
        <g id="XMLID_12549_" transform="matrix(13.9359,-9.3335,9.3335,13.9359,-32.7273,359.715)">
            <circle cx="18.7" cy="24.2" r="5.7" style="fill:rgb(159,90,229);"/>
        </g>
        <g id="XMLID_12548_" transform="matrix(16.7727,0,0,16.7727,139.662,116.488)">
            <path d="M15.6,22.4C18.2,20.7 21.7,21.4 23.5,24C23.9,24.5 24.1,25.1 24.3,25.7C24.7,24.2 24.5,22.5 23.5,21C21.8,18.4 18.2,17.7 15.6,19.4C13.5,20.8 12.7,23.3 13.3,25.6C13.6,24.4 14.4,23.2 15.6,22.4Z" style="fill:rgb(191,141,242);fill-rule:nonzero;"/>
        </g>
        <g id="XMLID_12547_" transform="matrix(13.9359,-9.3335,9.3335,13.9359,-32.7273,359.715)">
            <circle cx="18.7" cy="24.2" r="5.7" style="fill:none;stroke:rgb(69,65,60);stroke-width:1px;"/>
        </g>
        <g id="XMLID_12546_" transform="matrix(13.9359,-9.3335,9.3335,13.9359,-110.075,375.364)">
            <circle cx="17.9" cy="32.2" r="5.7" style="fill:rgb(159,90,229);"/>
        </g>
        <g id="XMLID_12545_" transform="matrix(16.7727,0,0,16.7727,139.662,116.488)">
            <path d="M14.8,30.8C17.4,29.1 20.9,29.8 22.7,32.4C23,32.9 23.3,33.4 23.4,33.9C23.9,32.3 23.7,30.6 22.7,29.1C21,26.5 17.4,25.8 14.8,27.5C12.7,28.9 11.8,31.5 12.5,33.9C12.9,32.6 13.6,31.5 14.8,30.8Z" style="fill:rgb(191,141,242);fill-rule:nonzero;"/>
        </g>
        <g id="XMLID_12544_" transform="matrix(13.9359,-9.3335,9.3335,13.9359,-110.075,375.364)">
            <circle cx="17.9" cy="32.2" r="5.7" style="fill:none;stroke:rgb(69,65,60);stroke-width:1px;"/>
        </g>
        <g id="XMLID_12543_" transform="matrix(13.9364,-9.33401,9.33401,13.9364,39.3967,490.484)">
            <circle cx="33.7" cy="21" r="5.7" style="fill:rgb(159,90,229);"/>
        </g>
        <g id="XMLID_12542_" transform="matrix(16.7727,0,0,16.7727,139.662,116.488)">
            <path d="M30.5,19.4C33.1,17.7 36.6,18.4 38.4,21C38.7,21.5 39,22 39.1,22.6C39.6,21 39.3,19.3 38.4,17.8C36.7,15.2 33.1,14.5 30.5,16.2C28.4,17.6 27.5,20.2 28.2,22.5C28.6,21.3 29.4,20.2 30.5,19.4Z" style="fill:rgb(191,141,242);fill-rule:nonzero;"/>
        </g>
        <g id="XMLID_12541_" transform="matrix(13.9364,-9.33401,9.33401,13.9364,39.3967,490.484)">
            <circle cx="33.7" cy="21" r="5.7" style="fill:none;stroke:rgb(69,65,60);stroke-width:1px;"/>
        </g>
        <g id="XMLID_12540_" transform="matrix(13.9364,-9.33401,9.33401,13.9364,-39.8191,526.007)">
            <circle cx="34.8" cy="29.8" r="5.7" style="fill:rgb(159,90,229);"/>
        </g>
        <g id="XMLID_12539_" transform="matrix(16.7727,0,0,16.7727,139.662,116.488)">
            <path d="M31.6,27.5C34.2,25.8 37.7,26.5 39.5,29.1C39.9,29.7 40.2,30.4 40.3,31.1C40.6,29.6 40.4,28.1 39.5,26.7C37.8,24.1 34.2,23.4 31.6,25.1C29.6,26.4 28.7,28.8 29.2,31C29.6,29.6 30.4,28.3 31.6,27.5Z" style="fill:rgb(191,141,242);fill-rule:nonzero;"/>
        </g>
        <g id="XMLID_12538_" transform="matrix(13.9364,-9.33401,9.33401,13.9364,-39.8191,526.007)">
            <circle cx="34.8" cy="29.8" r="5.7" style="fill:none;stroke:rgb(69,65,60);stroke-width:1px;"/>
        </g>
        <g id="XMLID_12537_" transform="matrix(13.9359,-9.3335,9.3335,13.9359,-128.399,467.847)">
            <circle cx="26.5" cy="36.8" r="5.7" style="fill:rgb(159,90,229);"/>
        </g>
        <g id="XMLID_12536_" transform="matrix(16.7727,0,0,16.7727,139.662,116.488)">
            <path d="M31.9,35.3C31.6,35.6 31.2,36 30.8,36.2C27.8,38.2 23.9,37.7 22.1,35C21.9,34.7 21.7,34.3 21.6,34C22,33.3 22.6,32.6 23.4,32.1C26,30.4 29.5,31.1 31.3,33.7C31.6,34.1 31.8,34.7 31.9,35.3Z" style="fill:rgb(128,62,194);fill-rule:nonzero;"/>
        </g>
        <g id="XMLID_12535_" transform="matrix(13.9359,-9.3335,9.3335,13.9359,-128.399,467.847)">
            <circle cx="26.5" cy="36.8" r="5.7" style="fill:none;stroke:rgb(69,65,60);stroke-width:1px;"/>
        </g>
        <g id="XMLID_12534_" transform="matrix(16.7727,0,0,16.7727,139.662,116.488)">
            <path d="M25.6,22.3C25.6,22.3 23.9,18.6 18.8,15.2C15.8,13.2 13,12.6 11.6,12.5C11.1,12.4 10.6,12.7 10.4,13.2L9.8,14.6C9.5,15.3 10,16.1 10.8,16.2C12.4,16.3 14.9,16.7 17.4,18.2C22.9,21.5 24.4,24.5 24.4,24.5L25.6,22.3Z" style="fill:rgb(109,214,39);fill-rule:nonzero;"/>
        </g>
        <g id="XMLID_12533_" transform="matrix(16.7727,0,0,16.7727,139.662,116.488)">
            <path d="M18.1,16.7C22.1,19.1 24.2,21.9 25,23.2L25.5,22.3C25.5,22.3 23.8,18.6 18.7,15.2C15.7,13.2 12.9,12.6 11.5,12.5C11,12.4 10.5,12.7 10.3,13.2L10,14.1C11.6,14.2 14.8,14.7 18.1,16.7Z" style="fill:rgb(156,235,96);fill-rule:nonzero;"/>
        </g>
        <g id="XMLID_12532_" transform="matrix(16.7727,0,0,16.7727,139.662,116.488)">
            <path d="M25.6,22.3C25.6,22.3 23.9,18.6 18.8,15.2C15.8,13.2 13,12.6 11.6,12.5C11.1,12.4 10.6,12.7 10.4,13.2L9.8,14.6C9.5,15.3 10,16.1 10.8,16.2C12.4,16.3 14.9,16.7 17.4,18.2C22.9,21.5 24.4,24.5 24.4,24.5L25.6,22.3Z" style="fill:none;fill-rule:nonzero;stroke:rgb(69,65,60);stroke-width:1px;"/>
        </g>
        <g id="XMLID_12531_" transform="matrix(13.9364,-9.33401,9.33401,13.9364,-35.537,450.684)">
            <circle cx="27.6" cy="27.1" r="6.8" style="fill:rgb(159,90,229);"/>
        </g>
        <g id="XMLID_12530_" transform="matrix(16.7727,0,0,16.7727,139.662,116.488)">
            <path d="M23.8,25.4C26.9,23.3 31.2,24.1 33.3,27.3C33.7,27.9 34,28.5 34.2,29.1C34.8,27.2 34.5,25.1 33.3,23.3C31.2,20.2 27,19.3 23.8,21.4C21.2,23.1 20.2,26.2 21.1,29C21.5,27.7 22.4,26.3 23.8,25.4Z" style="fill:rgb(191,141,242);fill-rule:nonzero;"/>
        </g>
        <g id="XMLID_12529_" transform="matrix(13.9364,-9.33401,9.33401,13.9364,-35.537,450.684)">
            <circle cx="27.6" cy="27.1" r="6.8" style="fill:none;stroke:rgb(69,65,60);stroke-width:1px;"/>
        </g>
        <g id="XMLID_12528_" transform="matrix(16.7727,0,0,16.7727,139.662,116.488)">
            <path d="M16.4,5.3C16.5,4.8 17.1,4.6 17.5,4.9L19.6,6.7C19.9,7 20.4,6.9 20.6,6.5L20.7,6.3C21.5,5 22.7,4.1 24,3.6L25,3.3C25.3,3.2 25.7,3.4 25.8,3.7L26.2,4.6C26.8,5.7 27,7 26.9,8.3L26.9,8.6C26.9,9.1 27.2,9.5 27.6,9.4L29.8,9.3C30.3,9.3 30.7,9.9 30.5,10.4L30.2,11.1C29,13.7 26.7,15.5 24,15.8L20.4,16.3L18.1,13.3C16.3,11.1 15.7,8.1 16.4,5.3Z" style="fill:rgb(109,214,39);fill-rule:nonzero;"/>
        </g>
        <g id="XMLID_12527_" transform="matrix(16.7727,0,0,16.7727,139.662,116.488)">
            <path d="M16.4,7.6C16.5,7.1 17.1,6.9 17.5,7.2L19.6,9C19.9,9.3 20.4,9.2 20.6,8.8L20.7,8.6C21.5,7.3 22.6,6.4 24,5.9L25,5.6C25.3,5.5 25.7,5.7 25.8,6L26.2,6.9C26.7,8.1 26.9,9.3 26.8,10.6L26.8,10.9C26.8,11.4 27.1,11.8 27.5,11.7L29.7,11.6L29.8,11.6C29.9,11.4 30,11.3 30,11.1L30.3,10.4C30.5,9.9 30.2,9.3 29.6,9.3L27.4,9.4C27,9.4 26.6,9 26.7,8.6L26.7,8.3C27,7 26.8,5.7 26.3,4.6L25.9,3.7C25.7,3.4 25.4,3.2 25.1,3.3L24.1,3.6C22.8,4 21.6,5 20.8,6.3L20.7,6.5C20.5,6.9 20,6.9 19.7,6.7L17.6,4.9C17.2,4.6 16.6,4.8 16.5,5.3C16.2,6.4 16.2,7.6 16.3,8.7C16.2,8.3 16.3,8 16.4,7.6Z" style="fill:rgb(156,235,96);fill-rule:nonzero;"/>
        </g>
        <g id="XMLID_12526_" transform="matrix(16.7727,0,0,16.7727,139.662,116.488)">
            <path d="M16.4,5.3C16.5,4.8 17.1,4.6 17.5,4.9L19.6,6.7C19.9,7 20.4,6.9 20.6,6.5L20.7,6.3C21.5,5 22.7,4.1 24,3.6L25,3.3C25.3,3.2 25.7,3.4 25.8,3.7L26.2,4.6C26.8,5.7 27,7 26.9,8.3L26.9,8.6C26.9,9.1 27.2,9.5 27.6,9.4L29.8,9.3C30.3,9.3 30.7,9.9 30.5,10.4L30.2,11.1C29,13.7 26.7,15.5 24,15.8L20.4,16.3L18.1,13.3C16.3,11.1 15.7,8.1 16.4,5.3Z" style="fill:none;fill-rule:nonzero;stroke:rgb(69,65,60);stroke-width:1px;"/>
        </g>
        <g id="XMLID_12525_" transform="matrix(16.7727,0,0,16.7727,139.662,116.488)">
            <path d="M20.3,16.3C20.2,14.3 21.2,11.4 23.2,8.8" style="fill:none;fill-rule:nonzero;stroke:rgb(69,65,60);stroke-width:1px;"/>
        </g>
    </g>
</svg>
